P2
# ASCII copy for installation through ament_python.
31 23
255
 205 205 205 205 205 205 205   0   0   0   0   0   0   0   0   0   0   0   0   0   0   0   0   0   0   0   0   0   0   0   0
 205 205 205 205 205 205 205   0 254 254 254 254 254 254 254 254 254 254 254 254 254 254 254 254 254 254 254 254 254 254   0
 205 205 205 205 205 205 205   0 254 254 254 254 254 254 254 254 254 254 254 254 254 254 254 254 254 254 254 254 254 254   0
 205 205 205 205 205 205 205   0 254 254 254 254 254 254 254 254 254 254 254 254 254 254 254 254 254 254 254 254 254 254   0
 205 205 205 205 205 205 205   0 254 254 254 254 254 254 254 254 254 254 254 254 254 254 254 254 254 254 254 254 254 254   0
 205 205 205 205 205 205 205   0 254 254 254 254 254 254 254 255 255 255 255 255 254 254 254 254 254 254 254 254 254 254   0
 205 205 205 205 205 205 205   0 254 254 254 254 254 254 255 255 255 255 255 255 254 254 254 254 254 254 254 254 254 254   0
 205 205 205   0   0   0   0   0 254 254 254 254 254 254 255 255 255 255 255 254 254 254 254 254 254 254 254 254 254 254   0
   0   0   0   0 254 254 254 254 254 254 254 254 255 255 255 255 255 255 255 254 254 254 254 254 254 254   0   0   0   0   0
   0 254 254 254 254 254 254 254 254 255 255 255 255 255 255 255 255 255 255 254 254 254 254 254 254 254   0 205 205 205 205
   0 254 254 254 254 254 254 254 254 255 255 255 255 255 255 255 255 255 255 254 254 254 254 254 254 254   0 205 205 205 205
   0 254 254 254 254 254 254 254 254 255 255 255 255 255 255 255 255 255 255 254 254 254 254 254 254 254   0 205 205 205 205
   0 254 254 254 254 254 254 254 255 255 255 255 255 255 255 255 255 255 255 254 254 254 254 254 254 254   0 205 205 205 205
   0 254 254 254 254 254 254 254 254 255 255 255 255 255 255 255 255 255 254 254 254 254 254 254 254 254   0 205 205 205 205
   0   0   0   0 254 254 254 254 254 255 255 255 255 255 254 255 255 254 254 254 254 254 254 254 254 254   0   0   0   0   0
 205 205 205   0 254 254 254 254 254 255 255 255 255 254 254 254 254 254 254 254 254 254 254 254 254 254 254 254 254 254   0
 205 205 205   0 254 254 254 254 254 255 255 254 254 254 254 254 254 254 254 254 254 254 254 254 254 254 254 254 254 254   0
 205 205 205   0 254 254 254 254 254 254 254 254 254 254 254 254 254 254 254 254 254 254 254 254 254 254 254 254 254 254   0
 205 205 205   0 254 254 254 254 254 254 254 254 254 254 254 254 254 254 254 254 254 254 254 254 254 254 254 254 254 254   0
 205 205 205   0 254 254 254 254 254 254 254 254 254 254 254 254 254 254 254 254 254 254 254 254 254 254 254 254 254 254   0
 205 205 205   0 254 254 254 254 254 254 254 254 254 254 254 254 254 254 254 254 254 254 254 254 254 254 254 254 254 254   0
 205 205 205   0 254 254 254 254 254 254 254 254 254 254 254 254 254 254 254 254 254 254 254 254 254 254 254 254 254 254   0
 205 205 205   0   0   0   0   0   0   0   0   0   0   0   0   0   0   0   0   0   0   0   0   0   0   0   0   0   0   0   0
